X: 180058
T: Raffertys' Party (The) 
N: 037
C: BB
R: reel
Q: 1/8=350
M: 4/4
L: 1/8
K: G
A|"G"BAGA BAGA|"Em"(3Bcd eg edBA|"G"BAGA "C"egfe|"Bm7"dBAF "Em"E3 A|
"G"BAGA BAGA|"Em"(3Bcd ef "C"g3 a|"G"bg (3gfg "Bm7"afdB|"D7"cAFA "G"G3 :|
z|"Am"eAfA "G"g2 ab|"C"gedc "G"BG (3GFG|"D"ADBD "C"c2 de|"D7"cAFA "G"G3 B|
"Am"eAfA "G"g2 ab|"C"gedc "G"BG (3GFG|"Am"EAcA "D"FAdA|"D7"cAFA "G"G3 :|
